X:1
T:Serve bone et fidelis
T:Orlando di Lasso
T:Source : Bicinia---Antwerp---Pierre Phalèse Jr---1609. Editor : André Vierendeels (09/05/17).
T:Notes : Original clefs : C3, F3 Editorial accidentals above the staff Original note values have been halved
T:Serve bone et fidelis
T:©
T:©
T:©
C:Orlando di Lasso
Z:©
%%score [ 1 2 ]
L:1/8
Q:1/4=120
M:2/2
K:C
V:1 treble-8 nm="Tenor" snm="T"
V:2 bass nm="Bass" snm="B"
V:1
 d6 G2 | c4 B3 c | d2 e4 d2 | cB g3 fed | cd e3 d d2- | dc/B/ c2 d4- | d4 z2 G2 | d2 d2 f3 e | %8
w: Ser- ve|bo- ne _|_ et fi-|de- * * * * *||* * * * lis,|_ qui-|a in pau- *|
 dc d2 A4 | z2 A2 c2 A2 | e2 gf ed c2 | G8 | z2 c2 e2 c2 | g2 e3 d e2 | B4 z2 cd | ef g2 e2 AB | %16
w: * * * ca|fu- i- sti|fi- de- * * * *|lis,|fu- i- sti|fi- de- * *|lis, su- *|* * * pra mul- *|
 cA B2 c3 B | A2 G2 z2 c2 | f2 e2 d4- | d4 z2 G2 | c2 B2 A4 | e4 c4 | f4 d4 | z2 g2 f2 e2 | %24
w: * * * ta _|_ te con-|sti tu- am,|_ con-|sti- tu- am,|in- tra,|in- tra|in gau- di-|
 a3 g fe d2 | d3 d d4 | z2 d2 c2 B2 | e4 z2 f2 | e2 d2 g3 f | ed c2 B3 c | c2 A3 GAB | %31
w: um _ _ _ _|Do- mi- ni,|in gau- di-|um, in|gau- di- um _|_ _ _ Do- mi-|i De- * * *|
 cdef de c2- | cAcB AG c2- | c2 B2 A4 | G8 |] %35
w: ||* i tu-|i.|
V:2
 z8 | z4 G,4- | G,2 C,2 F,4 | E,3 F, G,2 A,2- | A,2 G,2 F,4 | E,4 z2 D,2 | G,2 G,2 B,3 A, | %7
w: |Ser-|* ve bo-|ne _ _ et|_ fi- de-|lis, qui-|a in pau- *|
 G,F, G,2 D,4 | z2 D,2 F,2 D,2 | A,2 CB, A,G, F,2 | C,8 | z2 C,2 E,2 C,2 | G,2 A,3 G, A,2 | %13
w: * * * ca|fu- i- sti|fi- de- * * * *|lis,|fu- i- sti|fi- de- * *|
 E,4 z2 C,D, | E,F, G,2 E,2 A,B, | CA, B,2 C3 B, | A,2 G,2 z2 C,2 | C2 B,2 A,4- | A,4 z2 D,2 | %19
w: lis, su- *|* * * pra mul- *|* * * ta _|_ te con-|sti- tu- am,|_ con|
 G,2 F,2 E,4- | E,4 z2 C2- | C2 A,2 z2 F,2- | F,2 D,2 z2 G,2 | F,2 E,2 A,3 G, | F,E, D,2 B,3 A, | %25
w: sti- tu- am,|_ in-|* tra, in-|* tra in|gau- di- um _|_ _ _ Do- *|
 G,2 ^F,2 G,2 D,2 | C,2 B,,2 E,4 | z2 C2 B,2 A,2 | G,3 F, E,D, C,2- | C,D,E,F, G,2 E,2- | %30
w: * mi- ni, in|gau- di- um,|in gau- di-|um _ _ _ _|_ _ _ _ _ Do-|
 E,F, F,2 D,E,F,G, | A,F,G,A, B,G,A,E, | F,2 E,2 CB,A,G, |"^#" F,E, G,3 F,/E,/ F,2 |"^#" G,8 |] %35
w: * mi- ni De- * * *||* i tu- * * *||i.|

